images/5459456.svg

<?xml version="1.0" encoding="UTF-8"?>
<svg xmlns="http://www.w3.org/2000/svg" xmlns:xlink="http://www.w3.org/1999/xlink" width="300pt" height="300pt" viewBox="0 0 300 300" version="1.1">
<defs>
<g>
<symbol overflow="visible" id="glyph0-0">
<path style="stroke:none;" d="M 0.453125 1.59375 L 0.453125 -6.34375 L 4.953125 -6.34375 L 4.953125 1.59375 Z M 0.953125 1.09375 L 4.453125 1.09375 L 4.453125 -5.84375 L 0.953125 -5.84375 Z M 0.953125 1.09375 "/>
</symbol>
<symbol overflow="visible" id="glyph0-1">
<path style="stroke:none;" d="M 0.890625 -6.5625 L 2.078125 -6.5625 L 4.984375 -1.078125 L 4.984375 -6.5625 L 5.84375 -6.5625 L 5.84375 0 L 4.65625 0 L 1.75 -5.484375 L 1.75 0 L 0.890625 0 Z M 0.890625 -6.5625 "/>
</symbol>
<symbol overflow="visible" id="glyph0-2">
<path style="stroke:none;" d="M 3.546875 -5.953125 C 2.898438 -5.953125 2.382812 -5.710938 2 -5.234375 C 1.625 -4.753906 1.4375 -4.101562 1.4375 -3.28125 C 1.4375 -2.445312 1.625 -1.789062 2 -1.3125 C 2.382812 -0.832031 2.898438 -0.59375 3.546875 -0.59375 C 4.191406 -0.59375 4.703125 -0.832031 5.078125 -1.3125 C 5.453125 -1.789062 5.640625 -2.445312 5.640625 -3.28125 C 5.640625 -4.101562 5.453125 -4.753906 5.078125 -5.234375 C 4.703125 -5.710938 4.191406 -5.953125 3.546875 -5.953125 Z M 3.546875 -6.6875 C 4.460938 -6.6875 5.195312 -6.375 5.75 -5.75 C 6.300781 -5.132812 6.578125 -4.3125 6.578125 -3.28125 C 6.578125 -2.238281 6.300781 -1.410156 5.75 -0.796875 C 5.195312 -0.179688 4.460938 0.125 3.546875 0.125 C 2.617188 0.125 1.878906 -0.179688 1.328125 -0.796875 C 0.773438 -1.410156 0.5 -2.238281 0.5 -3.28125 C 0.5 -4.3125 0.773438 -5.132812 1.328125 -5.75 C 1.878906 -6.375 2.617188 -6.6875 3.546875 -6.6875 Z M 3.546875 -6.6875 "/>
</symbol>
</g>
</defs>
<g id="surface40213">
<rect x="0" y="0" width="300" height="300" style="fill:rgb(100%,100%,100%);fill-opacity:1;stroke:none;"/>
<path style="fill:none;stroke-width:1.2;stroke-linecap:butt;stroke-linejoin:miter;stroke:rgb(0%,0%,0%);stroke-opacity:1;stroke-miterlimit:10;" d="M 35.25 224.222656 L 54.363281 208.910156 "/>
<path style="fill:none;stroke-width:1.2;stroke-linecap:butt;stroke-linejoin:miter;stroke:rgb(0%,0%,0%);stroke-opacity:1;stroke-miterlimit:10;" d="M 54.363281 208.910156 L 77.183594 217.808594 "/>
<path style="fill:none;stroke-width:1.2;stroke-linecap:butt;stroke-linejoin:miter;stroke:rgb(0%,0%,0%);stroke-opacity:1;stroke-miterlimit:10;" d="M 77.183594 217.808594 L 96.296875 202.492188 "/>
<path style="fill:none;stroke-width:1.2;stroke-linecap:butt;stroke-linejoin:miter;stroke:rgb(0%,0%,0%);stroke-opacity:1;stroke-miterlimit:10;" d="M 96.296875 202.492188 L 119.921875 208.957031 "/>
<path style="fill:none;stroke-width:1.2;stroke-linecap:butt;stroke-linejoin:miter;stroke:rgb(0%,0%,0%);stroke-opacity:1;stroke-miterlimit:10;" d="M 100.183594 197.582031 L 119.082031 202.753906 "/>
<path style="fill:none;stroke-width:1.2;stroke-linecap:butt;stroke-linejoin:miter;stroke:rgb(0%,0%,100%);stroke-opacity:1;stroke-miterlimit:10;" d="M 95.144531 178.027344 L 95.722656 190.261719 "/>
<path style="fill:none;stroke-width:1.2;stroke-linecap:butt;stroke-linejoin:miter;stroke:rgb(0%,0%,0%);stroke-opacity:1;stroke-miterlimit:10;" d="M 95.722656 190.261719 L 96.296875 202.492188 "/>
<path style="fill:none;stroke-width:1.2;stroke-linecap:butt;stroke-linejoin:miter;stroke:rgb(0%,0%,0%);stroke-opacity:1;stroke-miterlimit:10;" d="M 119.921875 208.957031 L 133.371094 188.484375 "/>
<path style="fill:none;stroke-width:1.2;stroke-linecap:butt;stroke-linejoin:miter;stroke:rgb(0%,0%,0%);stroke-opacity:1;stroke-miterlimit:10;" d="M 133.371094 188.484375 L 118.054688 169.371094 "/>
<path style="fill:none;stroke-width:1.2;stroke-linecap:butt;stroke-linejoin:miter;stroke:rgb(0%,0%,0%);stroke-opacity:1;stroke-miterlimit:10;" d="M 136.335938 182.972656 L 124.085938 167.679688 "/>
<path style="fill:none;stroke-width:1.2;stroke-linecap:butt;stroke-linejoin:miter;stroke:rgb(0%,0%,0%);stroke-opacity:1;stroke-miterlimit:10;" d="M 156.28125 179.828125 L 133.371094 188.484375 "/>
<path style="fill:none;stroke-width:1.2;stroke-linecap:butt;stroke-linejoin:miter;stroke:rgb(0%,0%,0%);stroke-opacity:1;stroke-miterlimit:10;" d="M 118.054688 169.371094 L 106.601562 173.699219 "/>
<path style="fill:none;stroke-width:1.2;stroke-linecap:butt;stroke-linejoin:miter;stroke:rgb(0%,0%,100%);stroke-opacity:1;stroke-miterlimit:10;" d="M 106.601562 173.699219 L 95.144531 178.027344 "/>
<path style="fill:none;stroke-width:1.2;stroke-linecap:butt;stroke-linejoin:miter;stroke:rgb(0%,0%,0%);stroke-opacity:1;stroke-miterlimit:10;" d="M 118.054688 169.371094 L 131.503906 148.902344 "/>
<path style="fill:none;stroke-width:1.2;stroke-linecap:butt;stroke-linejoin:miter;stroke:rgb(0%,0%,100%);stroke-opacity:1;stroke-miterlimit:10;" d="M 95.144531 178.027344 L 84.910156 171.304688 "/>
<path style="fill:none;stroke-width:1.2;stroke-linecap:butt;stroke-linejoin:miter;stroke:rgb(0%,0%,0%);stroke-opacity:1;stroke-miterlimit:10;" d="M 84.910156 171.304688 L 74.675781 164.582031 "/>
<path style=" stroke:none;fill-rule:nonzero;fill:rgb(100%,100%,100%);fill-opacity:1;" d="M 92.144531 172.527344 L 99.144531 172.527344 L 99.144531 183.527344 L 92.144531 183.527344 Z M 92.144531 172.527344 "/>
<g style="fill:rgb(0%,0%,100%);fill-opacity:1;">
  <use xlink:href="#glyph0-1" x="92.144531" y="181.19043"/>
</g>
<path style="fill:none;stroke-width:1.2;stroke-linecap:butt;stroke-linejoin:miter;stroke:rgb(0%,0%,0%);stroke-opacity:1;stroke-miterlimit:10;" d="M 74.675781 164.582031 L 76.085938 140.128906 "/>
<path style="fill:none;stroke-width:1.2;stroke-linecap:butt;stroke-linejoin:miter;stroke:rgb(0%,0%,0%);stroke-opacity:1;stroke-miterlimit:10;" d="M 76.085938 140.128906 L 97.964844 129.125 "/>
<path style="fill:none;stroke-width:1.2;stroke-linecap:butt;stroke-linejoin:miter;stroke:rgb(0%,0%,0%);stroke-opacity:1;stroke-miterlimit:10;" d="M 75.683594 133.882812 L 93.1875 125.078125 "/>
<path style="fill:none;stroke-width:1.2;stroke-linecap:butt;stroke-linejoin:miter;stroke:rgb(0%,0%,0%);stroke-opacity:1;stroke-miterlimit:10;" d="M 55.613281 126.683594 L 76.085938 140.128906 "/>
<path style="fill:none;stroke-width:1.2;stroke-linecap:butt;stroke-linejoin:miter;stroke:rgb(0%,0%,0%);stroke-opacity:1;stroke-miterlimit:10;" d="M 97.964844 129.125 L 99.375 104.671875 "/>
<path style="fill:none;stroke-width:1.2;stroke-linecap:butt;stroke-linejoin:miter;stroke:rgb(0%,0%,0%);stroke-opacity:1;stroke-miterlimit:10;" d="M 99.375 104.671875 L 78.90625 91.226562 "/>
<path style="fill:none;stroke-width:1.2;stroke-linecap:butt;stroke-linejoin:miter;stroke:rgb(0%,0%,0%);stroke-opacity:1;stroke-miterlimit:10;" d="M 94.164062 108.144531 L 77.789062 97.386719 "/>
<path style="fill:none;stroke-width:1.2;stroke-linecap:butt;stroke-linejoin:miter;stroke:rgb(0%,0%,0%);stroke-opacity:1;stroke-miterlimit:10;" d="M 78.90625 91.226562 L 57.023438 102.230469 "/>
<path style="fill:none;stroke-width:1.2;stroke-linecap:butt;stroke-linejoin:miter;stroke:rgb(0%,0%,0%);stroke-opacity:1;stroke-miterlimit:10;" d="M 78.90625 91.226562 L 80.316406 66.773438 "/>
<path style="fill:none;stroke-width:1.2;stroke-linecap:butt;stroke-linejoin:miter;stroke:rgb(0%,0%,0%);stroke-opacity:1;stroke-miterlimit:10;" d="M 57.023438 102.230469 L 55.613281 126.683594 "/>
<path style="fill:none;stroke-width:1.2;stroke-linecap:butt;stroke-linejoin:miter;stroke:rgb(0%,0%,0%);stroke-opacity:1;stroke-miterlimit:10;" d="M 62.636719 105.007812 L 61.507812 124.570312 "/>
<path style="fill:none;stroke-width:1.2;stroke-linecap:butt;stroke-linejoin:miter;stroke:rgb(0%,0%,0%);stroke-opacity:1;stroke-miterlimit:10;" d="M 131.503906 148.902344 L 155.128906 155.363281 "/>
<path style="fill:none;stroke-width:1.2;stroke-linecap:butt;stroke-linejoin:miter;stroke:rgb(0%,0%,0%);stroke-opacity:1;stroke-miterlimit:10;" d="M 131.503906 148.902344 L 122.847656 125.988281 "/>
<path style="fill:none;stroke-width:1.2;stroke-linecap:butt;stroke-linejoin:miter;stroke:rgb(0%,0%,0%);stroke-opacity:1;stroke-miterlimit:10;" d="M 155.128906 155.363281 L 156.28125 179.828125 "/>
<path style="fill:none;stroke-width:1.2;stroke-linecap:butt;stroke-linejoin:miter;stroke:rgb(0%,0%,0%);stroke-opacity:1;stroke-miterlimit:10;" d="M 178.039062 146.707031 L 155.128906 155.363281 "/>
<path style="fill:none;stroke-width:1.2;stroke-linecap:butt;stroke-linejoin:miter;stroke:rgb(0%,0%,0%);stroke-opacity:1;stroke-miterlimit:10;" d="M 156.28125 179.828125 L 179.90625 186.292969 "/>
<path style="fill:none;stroke-width:1.2;stroke-linecap:butt;stroke-linejoin:miter;stroke:rgb(0%,0%,0%);stroke-opacity:1;stroke-miterlimit:10;" d="M 179.90625 186.292969 L 186.628906 176.058594 "/>
<path style="fill:none;stroke-width:1.2;stroke-linecap:butt;stroke-linejoin:miter;stroke:rgb(0%,0%,100%);stroke-opacity:1;stroke-miterlimit:10;" d="M 186.628906 176.058594 L 193.351562 165.820312 "/>
<path style="fill:none;stroke-width:1.2;stroke-linecap:butt;stroke-linejoin:miter;stroke:rgb(0%,0%,0%);stroke-opacity:1;stroke-miterlimit:10;" d="M 179.90625 186.292969 L 171.007812 209.113281 "/>
<path style="fill:none;stroke-width:1.2;stroke-linecap:butt;stroke-linejoin:miter;stroke:rgb(0%,0%,0%);stroke-opacity:1;stroke-miterlimit:10;" d="M 179.90625 186.292969 L 201.667969 197.527344 "/>
<path style="fill:none;stroke-width:1.2;stroke-linecap:butt;stroke-linejoin:miter;stroke:rgb(0%,0%,100%);stroke-opacity:1;stroke-miterlimit:10;" d="M 193.351562 165.820312 L 185.695312 156.265625 "/>
<path style="fill:none;stroke-width:1.2;stroke-linecap:butt;stroke-linejoin:miter;stroke:rgb(0%,0%,0%);stroke-opacity:1;stroke-miterlimit:10;" d="M 185.695312 156.265625 L 178.039062 146.707031 "/>
<path style="fill:none;stroke-width:1.2;stroke-linecap:butt;stroke-linejoin:miter;stroke:rgb(0%,0%,100%);stroke-opacity:1;stroke-miterlimit:10;" d="M 193.351562 165.820312 L 205.585938 165.246094 "/>
<path style="fill:none;stroke-width:1.2;stroke-linecap:butt;stroke-linejoin:miter;stroke:rgb(0%,0%,0%);stroke-opacity:1;stroke-miterlimit:10;" d="M 205.585938 165.246094 L 217.816406 164.667969 "/>
<path style=" stroke:none;fill-rule:nonzero;fill:rgb(100%,100%,100%);fill-opacity:1;" d="M 190.351562 160.320312 L 197.351562 160.320312 L 197.351562 171.320312 L 190.351562 171.320312 Z M 190.351562 160.320312 "/>
<g style="fill:rgb(0%,0%,100%);fill-opacity:1;">
  <use xlink:href="#glyph0-1" x="190.351562" y="168.983398"/>
</g>
<path style="fill:none;stroke-width:1.2;stroke-linecap:butt;stroke-linejoin:miter;stroke:rgb(0%,0%,0%);stroke-opacity:1;stroke-miterlimit:10;" d="M 215.601562 166.507812 L 221.304688 173.378906 "/>
<path style="fill:none;stroke-width:1.2;stroke-linecap:butt;stroke-linejoin:miter;stroke:rgb(100%,0%,0%);stroke-opacity:1;stroke-miterlimit:10;" d="M 221.304688 173.378906 L 227.003906 180.246094 "/>
<path style="fill:none;stroke-width:1.2;stroke-linecap:butt;stroke-linejoin:miter;stroke:rgb(0%,0%,0%);stroke-opacity:1;stroke-miterlimit:10;" d="M 220.035156 162.828125 L 225.738281 169.695312 "/>
<path style="fill:none;stroke-width:1.2;stroke-linecap:butt;stroke-linejoin:miter;stroke:rgb(100%,0%,0%);stroke-opacity:1;stroke-miterlimit:10;" d="M 225.738281 169.695312 L 231.441406 176.566406 "/>
<path style="fill:none;stroke-width:1.2;stroke-linecap:butt;stroke-linejoin:miter;stroke:rgb(0%,0%,0%);stroke-opacity:1;stroke-miterlimit:10;" d="M 217.816406 164.667969 L 229.050781 142.90625 "/>
<path style=" stroke:none;fill-rule:nonzero;fill:rgb(100%,100%,100%);fill-opacity:1;" d="M 225.222656 172.90625 L 233.222656 172.90625 L 233.222656 183.90625 L 225.222656 183.90625 Z M 225.222656 172.90625 "/>
<g style="fill:rgb(100%,0%,0%);fill-opacity:1;">
  <use xlink:href="#glyph0-2" x="225.222656" y="181.569336"/>
</g>
<path style="fill:none;stroke-width:1.2;stroke-linecap:butt;stroke-linejoin:miter;stroke:rgb(0%,0%,0%);stroke-opacity:1;stroke-miterlimit:10;" d="M 229.050781 142.90625 L 253.515625 141.75 "/>
<path style="fill:none;stroke-width:1.2;stroke-linecap:butt;stroke-linejoin:miter;stroke:rgb(0%,0%,0%);stroke-opacity:1;stroke-miterlimit:10;" d="M 231.226562 137.03125 L 250.796875 136.109375 "/>
<path style="fill:none;stroke-width:1.2;stroke-linecap:butt;stroke-linejoin:miter;stroke:rgb(0%,0%,0%);stroke-opacity:1;stroke-miterlimit:10;" d="M 215.820312 122.292969 L 229.050781 142.90625 "/>
<path style="fill:none;stroke-width:1.2;stroke-linecap:butt;stroke-linejoin:miter;stroke:rgb(0%,0%,0%);stroke-opacity:1;stroke-miterlimit:10;" d="M 253.515625 141.75 L 264.75 119.988281 "/>
<path style="fill:none;stroke-width:1.2;stroke-linecap:butt;stroke-linejoin:miter;stroke:rgb(0%,0%,0%);stroke-opacity:1;stroke-miterlimit:10;" d="M 264.75 119.988281 L 251.519531 99.375 "/>
<path style="fill:none;stroke-width:1.2;stroke-linecap:butt;stroke-linejoin:miter;stroke:rgb(0%,0%,0%);stroke-opacity:1;stroke-miterlimit:10;" d="M 258.578125 121.039062 L 247.992188 104.550781 "/>
<path style="fill:none;stroke-width:1.2;stroke-linecap:butt;stroke-linejoin:miter;stroke:rgb(0%,0%,0%);stroke-opacity:1;stroke-miterlimit:10;" d="M 251.519531 99.375 L 227.054688 100.53125 "/>
<path style="fill:none;stroke-width:1.2;stroke-linecap:butt;stroke-linejoin:miter;stroke:rgb(0%,0%,0%);stroke-opacity:1;stroke-miterlimit:10;" d="M 227.054688 100.53125 L 215.820312 122.292969 "/>
<path style="fill:none;stroke-width:1.2;stroke-linecap:butt;stroke-linejoin:miter;stroke:rgb(0%,0%,0%);stroke-opacity:1;stroke-miterlimit:10;" d="M 231.050781 105.347656 L 222.0625 122.761719 "/>
<path style="fill:none;stroke-width:1.2;stroke-linecap:butt;stroke-linejoin:miter;stroke:rgb(0%,0%,0%);stroke-opacity:1;stroke-miterlimit:10;" d="M 202.917969 200.121094 L 210.964844 196.25 "/>
<path style="fill:none;stroke-width:1.2;stroke-linecap:butt;stroke-linejoin:miter;stroke:rgb(100%,0%,0%);stroke-opacity:1;stroke-miterlimit:10;" d="M 210.964844 196.25 L 219.007812 192.378906 "/>
<path style="fill:none;stroke-width:1.2;stroke-linecap:butt;stroke-linejoin:miter;stroke:rgb(0%,0%,0%);stroke-opacity:1;stroke-miterlimit:10;" d="M 200.417969 194.929688 L 208.464844 191.058594 "/>
<path style="fill:none;stroke-width:1.2;stroke-linecap:butt;stroke-linejoin:miter;stroke:rgb(100%,0%,0%);stroke-opacity:1;stroke-miterlimit:10;" d="M 208.464844 191.058594 L 216.507812 187.1875 "/>
<path style="fill:none;stroke-width:1.2;stroke-linecap:butt;stroke-linejoin:miter;stroke:rgb(0%,0%,0%);stroke-opacity:1;stroke-miterlimit:10;" d="M 201.667969 197.527344 L 202.246094 209.757812 "/>
<path style="fill:none;stroke-width:1.2;stroke-linecap:butt;stroke-linejoin:miter;stroke:rgb(100%,0%,0%);stroke-opacity:1;stroke-miterlimit:10;" d="M 202.246094 209.757812 L 202.824219 221.992188 "/>
<path style=" stroke:none;fill-rule:nonzero;fill:rgb(100%,100%,100%);fill-opacity:1;" d="M 213.757812 184.285156 L 221.757812 184.285156 L 221.757812 195.285156 L 213.757812 195.285156 Z M 213.757812 184.285156 "/>
<g style="fill:rgb(100%,0%,0%);fill-opacity:1;">
  <use xlink:href="#glyph0-2" x="213.757812" y="192.948242"/>
</g>
<path style="fill:none;stroke-width:1.2;stroke-linecap:butt;stroke-linejoin:miter;stroke:rgb(100%,0%,0%);stroke-opacity:1;stroke-miterlimit:10;" d="M 202.824219 221.992188 L 213.703125 227.609375 "/>
<path style="fill:none;stroke-width:1.2;stroke-linecap:butt;stroke-linejoin:miter;stroke:rgb(0%,0%,0%);stroke-opacity:1;stroke-miterlimit:10;" d="M 213.703125 227.609375 L 224.585938 233.226562 "/>
<path style=" stroke:none;fill-rule:nonzero;fill:rgb(100%,100%,100%);fill-opacity:1;" d="M 198.824219 216.492188 L 206.824219 216.492188 L 206.824219 227.492188 L 198.824219 227.492188 Z M 198.824219 216.492188 "/>
<g style="fill:rgb(100%,0%,0%);fill-opacity:1;">
  <use xlink:href="#glyph0-2" x="198.824219" y="225.155273"/>
</g>
</g>
</svg>

<svg xmlns="http://www.w3.org/2000/svg" xmlns:xlink="http://www.w3.org/1999/xlink" width="300pt" height="300pt" viewBox="0 0 300 300"><defs><symbol overflow="visible"><path d="M.453 1.594v-7.938h4.5v7.938zm.5-.5h3.5v-6.938h-3.5zm0 0"/></symbol><symbol overflow="visible" id="a"><path d="M.89-6.563H2.08l2.906 5.485v-5.484h.86V0H4.656L1.75-5.484V0H.89zm0 0"/></symbol><symbol overflow="visible" id="b"><path d="M3.547-5.953c-.65 0-1.164.242-1.547.72-.375.48-.563 1.13-.563 1.952 0 .835.188 1.49.563 1.967.383.48.898.72 1.547.72.644 0 1.156-.24 1.53-.72.376-.476.564-1.132.564-1.968 0-.822-.187-1.474-.562-1.954-.375-.477-.887-.72-1.53-.72zm0-.734c.914 0 1.648.312 2.203.937.55.617.828 1.438.828 2.47 0 1.042-.277 1.87-.828 2.483-.555.617-1.29.922-2.203.922-.93 0-1.668-.305-2.22-.922C.774-1.41.5-2.237.5-3.28c0-1.033.273-1.853.828-2.47.55-.625 1.29-.938 2.22-.938zm0 0"/></symbol></defs><g><path fill="#fff" d="M0 0h300v300H0z"/><path d="M35.25 224.223l19.113-15.313M54.363 208.91l22.82 8.9M77.184 217.81l19.113-15.318M96.297 202.492l23.625 6.465M100.184 197.582l18.898 5.172" stroke-width="1.2" stroke="#000" stroke-miterlimit="10" fill="none"/><path d="M95.145 178.027l.578 12.235" stroke-width="1.2" stroke="#00f" stroke-miterlimit="10" fill="none"/><path d="M95.723 190.262l.574 12.23M119.922 208.957l13.45-20.473M133.37 188.484l-15.315-19.113M136.336 182.973l-12.25-15.293M156.28 179.828l-22.91 8.656M118.055 169.37l-11.453 4.33" stroke-width="1.2" stroke="#000" stroke-miterlimit="10" fill="none"/><path d="M106.602 173.7l-11.457 4.327" stroke-width="1.2" stroke="#00f" stroke-miterlimit="10" fill="none"/><path d="M118.055 169.37l13.45-20.468" stroke-width="1.2" stroke="#000" stroke-miterlimit="10" fill="none"/><path d="M95.145 178.027l-10.235-6.722" stroke-width="1.2" stroke="#00f" stroke-miterlimit="10" fill="none"/><path d="M84.91 171.305l-10.234-6.723" stroke-width="1.2" stroke="#000" stroke-miterlimit="10" fill="none"/><path d="M92.145 172.527h7v11h-7zm0 0" fill="#fff"/><use xlink:href="#a" x="92.145" y="181.19" fill="#00f"/><path d="M74.676 164.582l1.41-24.453M76.086 140.13l21.88-11.005M75.684 133.883l17.504-8.805M55.613 126.684l20.473 13.445M97.965 129.125l1.41-24.453M99.375 104.672l-20.47-13.445M94.164 108.145L77.79 97.387M78.906 91.227L57.023 102.23M78.906 91.227l1.41-24.454M57.023 102.23l-1.41 24.454M62.637 105.008l-1.13 19.562M131.504 148.902l23.625 6.46M131.504 148.902l-8.656-22.914M155.13 155.363l1.15 24.465M178.04 146.707l-22.91 8.656M156.28 179.828l23.626 6.465M179.906 186.293l6.723-10.234" stroke-width="1.2" stroke="#000" stroke-miterlimit="10" fill="none"/><path d="M186.63 176.06l6.722-10.24" stroke-width="1.2" stroke="#00f" stroke-miterlimit="10" fill="none"/><path d="M179.906 186.293l-8.898 22.82M179.906 186.293l21.762 11.234" stroke-width="1.2" stroke="#000" stroke-miterlimit="10" fill="none"/><path d="M193.352 165.82l-7.657-9.554" stroke-width="1.2" stroke="#00f" stroke-miterlimit="10" fill="none"/><path d="M185.695 156.266l-7.656-9.56" stroke-width="1.2" stroke="#000" stroke-miterlimit="10" fill="none"/><path d="M193.352 165.82l12.234-.574" stroke-width="1.2" stroke="#00f" stroke-miterlimit="10" fill="none"/><path d="M205.586 165.246l12.23-.578" stroke-width="1.2" stroke="#000" stroke-miterlimit="10" fill="none"/><path d="M190.352 160.32h7v11h-7zm0 0" fill="#fff"/><use xlink:href="#a" x="190.352" y="168.983" fill="#00f"/><path d="M215.602 166.508l5.703 6.87" stroke-width="1.2" stroke="#000" stroke-miterlimit="10" fill="none"/><path d="M221.305 173.38l5.7 6.866" stroke-width="1.2" stroke="#f00" stroke-miterlimit="10" fill="none"/><path d="M220.035 162.828l5.703 6.867" stroke-width="1.2" stroke="#000" stroke-miterlimit="10" fill="none"/><path d="M225.738 169.695l5.703 6.87" stroke-width="1.2" stroke="#f00" stroke-miterlimit="10" fill="none"/><path d="M217.816 164.668l11.235-21.762" stroke-width="1.2" stroke="#000" stroke-miterlimit="10" fill="none"/><path d="M225.223 172.906h8v11h-8zm0 0" fill="#fff"/><use xlink:href="#b" x="225.223" y="181.569" fill="#f00"/><path d="M229.05 142.906l24.466-1.156M231.227 137.03l19.57-.92M215.82 122.293l13.23 20.613M253.516 141.75l11.234-21.762M264.75 119.988l-13.23-20.613M258.578 121.04l-10.586-16.49M251.52 99.375l-24.465 1.156M227.055 100.53l-11.235 21.763M231.05 105.348l-8.988 17.414M202.918 200.12l8.047-3.87" stroke-width="1.2" stroke="#000" stroke-miterlimit="10" fill="none"/><path d="M210.965 196.25l8.043-3.87" stroke-width="1.2" stroke="#f00" stroke-miterlimit="10" fill="none"/><path d="M200.418 194.93l8.047-3.87" stroke-width="1.2" stroke="#000" stroke-miterlimit="10" fill="none"/><path d="M208.465 191.06l8.043-3.873" stroke-width="1.2" stroke="#f00" stroke-miterlimit="10" fill="none"/><path d="M201.668 197.527l.578 12.23" stroke-width="1.2" stroke="#000" stroke-miterlimit="10" fill="none"/><path d="M202.246 209.758l.578 12.234" stroke-width="1.2" stroke="#f00" stroke-miterlimit="10" fill="none"/><path d="M213.758 184.285h8v11h-8zm0 0" fill="#fff"/><use xlink:href="#b" x="213.758" y="192.948" fill="#f00"/><path d="M202.824 221.992l10.88 5.617" stroke-width="1.2" stroke="#f00" stroke-miterlimit="10" fill="none"/><path d="M213.703 227.61l10.883 5.617" stroke-width="1.2" stroke="#000" stroke-miterlimit="10" fill="none"/><path d="M198.824 216.492h8v11h-8zm0 0" fill="#fff"/><use xlink:href="#b" x="198.824" y="225.155" fill="#f00"/></g></svg>
